X: 7220
T: Clais An Adhmid
R: reel
M: 4/4
K: Amixolydian
ed|:cAB^G AGEF|G2 DG B,GDG|cAB^G AGEF|GEDB, G,2 B,G,|
G, ~A,3 B,A,B,D|EDEF GABd|cAB^G AGEF|1 ^GEGB A2 ed:|2 ^GEGB A3 B||
|:A2 eA cAeA|A^GEF =GEDG|A2 eA cAeA|A^GEC D2 DF|
GE(3FED EDB,D|G,3 B, DG,B,D|C2 EA cAB^G|1 EAA^G A3 B:|2 EAA^G A2||

